paymentMethods/twisto.svg

<svg width="128" height="64" viewBox="0 0 128 64" fill="none" xmlns="http://www.w3.org/2000/svg">
<rect width="128" height="64" rx="6" fill="white"/>
<path d="M56.5796 34.3418V28.8775H59.3032V26.0896H56.5796V22.6884H53.1335V26.0896H51.2437V28.8775H53.1335V34.7878C53.1335 37.5757 54.7454 38.8024 57.2466 38.8024C58.1915 38.8024 59.0253 38.6351 59.47 38.4121V35.3454C59.0809 35.6242 58.4695 35.7915 57.9692 35.7915C57.1355 35.7357 56.5796 35.2896 56.5796 34.3418V34.3418Z" fill="#4F008C"/>
<path d="M64.0278 26.0897H60.5817L64.3613 38.5236H67.5296L69.5861 30.8848L71.6427 38.5236H74.8109L78.5906 26.0897H75.2556L73.0323 34.0072L70.9201 26.0897H68.3077L66.2511 34.0072L64.0278 26.0897Z" fill="#4F008C"/>
<path d="M80.4249 26.0897H83.8711V38.5794H80.4249V26.0897Z" fill="#4F008C"/>
<path d="M93.3757 31.1636L90.8188 30.5503C90.0407 30.3273 89.7072 30.0485 89.7072 29.5466C89.7072 28.766 90.5409 28.3757 91.3747 28.3757C92.5419 28.3757 93.0978 28.9333 93.3201 29.6024H96.5995C96.1548 27.2606 94.4318 25.7551 91.3191 25.7551C88.5399 25.7551 86.3722 27.3721 86.3722 29.8254C86.3722 31.9442 87.7062 32.8921 89.596 33.3382L92.0973 33.8957C92.9866 34.1188 93.3757 34.3976 93.3757 34.9551C93.3757 35.7915 92.6531 36.1818 91.597 36.1818C90.5409 36.1818 89.7628 35.68 89.4849 34.7879H86.0387C86.4278 37.3527 88.5399 38.8024 91.597 38.8024C94.4873 38.8024 96.7107 37.297 96.7107 34.7321C96.7107 32.8921 95.5434 31.6654 93.3757 31.1636V31.1636Z" fill="#4F008C"/>
<path d="M103.214 34.3418V28.8775H105.937V26.0896H103.214V22.6884H99.7678V26.0896H97.8779V28.8775H99.7678V34.7878C99.7678 37.5757 101.38 38.8024 103.881 38.8024C104.826 38.8024 105.66 38.6351 106.104 38.4121V35.3454C105.715 35.6242 105.104 35.7915 104.603 35.7915C103.714 35.7357 103.214 35.2896 103.214 34.3418V34.3418Z" fill="#4F008C"/>
<path d="M113.497 25.8109C109.884 25.8109 106.994 28.7103 106.994 32.3346C106.994 35.9588 109.884 38.8582 113.497 38.8582C117.11 38.8582 120 35.9588 120 32.3346C120 28.7103 117.11 25.8109 113.497 25.8109ZM113.497 35.457C111.774 35.457 110.329 34.0073 110.329 32.2788C110.329 30.5503 111.774 29.1006 113.497 29.1006C115.22 29.1006 116.665 30.5503 116.665 32.2788C116.665 34.0073 115.22 35.457 113.497 35.457Z" fill="#4F008C"/>
<path d="M82.148 24.4169C83.0996 24.4169 83.8711 23.6431 83.8711 22.6884C83.8711 21.7338 83.0996 20.96 82.148 20.96C81.1964 20.96 80.4249 21.7338 80.4249 22.6884C80.4249 23.6431 81.1964 24.4169 82.148 24.4169Z" fill="#4F008C"/>
<path d="M19.1166 26.4242V48.7273H30.2333V15.2727H8V26.4242H19.1166Z" fill="#4F008C"/>
<path d="M30.2333 15.2727C30.2333 21.4618 35.2358 26.4242 41.3499 26.4242V15.2727H30.2333Z" fill="#009D4E"/>
<path d="M30.2333 15.2727C30.2333 21.4618 35.2358 26.4242 41.3499 26.4242V15.2727H30.2333Z" fill="url(#paint0_linear_10_13204)"/>
<defs>
<linearGradient id="paint0_linear_10_13204" x1="31.8619" y1="13.639" x2="43.0133" y2="24.7556" gradientUnits="userSpaceOnUse">
<stop stop-color="#82BC00" stop-opacity="0"/>
<stop offset="1" stop-color="#82BC00"/>
</linearGradient>
</defs>
</svg>

<svg xmlns="http://www.w3.org/2000/svg" width="128" height="64" fill="none"><rect width="128" height="64" fill="#fff" rx="6"/><path fill="#4F008C" d="M56.58 34.342v-5.464h2.723V26.09H56.58v-3.402h-3.447v3.402h-1.89v2.788h1.89v5.91c0 2.788 1.612 4.014 4.114 4.014.944 0 1.778-.167 2.223-.39v-3.067c-.39.28-1 .447-1.5.447-.834-.056-1.39-.502-1.39-1.45ZM64.028 26.09h-3.446l3.78 12.434h3.168l2.056-7.64 2.057 7.64h3.168l3.78-12.434h-3.335l-2.224 7.917-2.112-7.917h-2.612l-2.057 7.917-2.223-7.917ZM80.425 26.09h3.446v12.49h-3.446V26.09ZM93.376 31.164l-2.557-.614c-.778-.223-1.112-.502-1.112-1.003 0-.781.834-1.171 1.668-1.171 1.167 0 1.723.557 1.945 1.226h3.28c-.445-2.341-2.168-3.847-5.28-3.847-2.78 0-4.948 1.617-4.948 4.07 0 2.12 1.334 3.067 3.224 3.513l2.501.558c.89.223 1.279.502 1.279 1.06 0 .835-.723 1.226-1.779 1.226s-1.834-.502-2.112-1.394h-3.446c.389 2.565 2.5 4.014 5.558 4.014 2.89 0 5.114-1.505 5.114-4.07 0-1.84-1.168-3.067-3.335-3.568ZM103.214 34.342v-5.464h2.723V26.09h-2.723v-3.402h-3.446v3.402h-1.89v2.788h1.89v5.91c0 2.788 1.612 4.014 4.113 4.014.945 0 1.779-.167 2.223-.39v-3.067c-.389.28-1 .447-1.501.447-.889-.056-1.389-.502-1.389-1.45ZM113.497 25.81a6.486 6.486 0 0 0-6.503 6.525 6.486 6.486 0 0 0 6.503 6.523c3.613 0 6.503-2.9 6.503-6.523a6.486 6.486 0 0 0-6.503-6.524Zm0 9.647c-1.723 0-3.168-1.45-3.168-3.178 0-1.729 1.445-3.178 3.168-3.178s3.168 1.45 3.168 3.178-1.445 3.178-3.168 3.178ZM82.148 24.417c.952 0 1.723-.774 1.723-1.729 0-.954-.771-1.728-1.723-1.728-.952 0-1.723.774-1.723 1.728 0 .955.771 1.729 1.723 1.729ZM19.117 26.424v22.303h11.116V15.273H8v11.151h11.117Z"/><path fill="#009D4E" d="M30.233 15.273c0 6.189 5.003 11.151 11.117 11.151V15.273H30.233Z"/><path fill="url(#a)" d="M30.233 15.273c0 6.189 5.003 11.151 11.117 11.151V15.273H30.233Z"/><defs><linearGradient id="a" x1="31.862" x2="43.013" y1="13.639" y2="24.756" gradientUnits="userSpaceOnUse"><stop stop-color="#82BC00" stop-opacity="0"/><stop offset="1" stop-color="#82BC00"/></linearGradient></defs></svg>
